X:1
T:6 Gesänge, Op.16
T:Du liebes Auge
T:1. Du liebes Auge
T:Robert Franz
T:6 Gesänge, Op.16
T:Otto Roquette
T:Thou gentle gazer
T:OpenScore (CC0)
T:OpenScore (CC0)
C:Robert Franz
Z:Otto Roquette
Z:OpenScore (CC0)
%%score 1 { ( 2 3 6 ) | ( 4 5 ) }
L:1/8
Q:1/4=95
M:4/4
K:B
V:1 treble nm="Voice"
V:2 treble nm="Piano"
V:3 treble 
V:6 treble 
V:4 bass 
V:5 bass 
V:1
"^Andante con moto""^Sehr innig und warm.  With enthusiasm."!mf! F2 B B B2 A2 | G2 c2 c2 B B | %2
w: Du lie- bes Au- ge,|willst dich tau- chen in|
w: Thou gen- tle ga- zer|wilt thou fa- thom in|
 e2 d2 c2 B2 | A2 B2 c2 A F | F2 B2 A2 G2 | F2 d2 c2 B B | A2 c2 f2 F2 |!<(! (A4 c2)!<)! ^E2 | %8
w: mei- nes Aug's ge-|heim- ste Tie- fe, zu|spä- hen, wo in|blau- en Grün- den ver-|bor- gen ei- ne|Per- * le|
w: my deep eye the|un- re- veal- ed, to|find out where in|a- zure depths * far|down one small pearl|lies * con-|
!p!!>(! G2 F2!>)! z4 |!mf! F2 B B B2 A2 | G2 c2 c2 B B | e2 d2 c2 B2 | A2 B2 (c2 A) F | %13
w: schlie- fe?|Du lie- bes Au- ge!|tau- che nie- der, und|in die kla- re|Tie- fe drin- ge, und|
w: ceal'd? *|Thou love- ly ga- zer!|bend down low- er, and|in my cry- stal|clear- ness see * what|
!p! F2 B2 B2 A2 | G2 c2 c2 B!mf! d |!>(! (fe)!>)! d2!mp! c2 B2 | (d2 G) A!<(! (B2 c2)!<)! | %17
w: läch- le, wenn ich|dir dein Bild- niss als|schön- * ste Per- le|wie- * der brin- *|
w: smil- ing, thou wilt|own thine i- mage I|prized * no pearl *|till * I saw *|
!>(! B4!>)!!mf! z4 |] %18
w: ge.|
w: thee.|
V:2
!mf!!<(! ([F,F]2 [B,B]4!<)! [A,A]2) |!mf!!<(! ([G,G]2 [Cc]4!<)! [B,B]2) | %2
!mf! ([Ee]2 [Dd]2 [Cc]2 [B,B]2 |!<(! [A,A]2 [B,B]2!<)!!>(! [Cc]2 [A,A]2)!>)! | %4
!mf!!<(! ([F,F]2 [B,B]2!<)!!>(! [A,A]2 [G,G]2)!>)! | %5
!mf!!<(! ([F,F]2 [Dd]2!<)!!>(! [Cc]2 [B,B]2)!>)! |!mf!!<(! ([FA]2 c2!<)!!>(! f2 F2!>)! | %7
!mf!!>(! [CFA]4!>)! [B,^EG]4) |!p!!<(! (A,2 C4!<)! B,2) |!mf! z2!<(! ([B,B]4!<)! [A,A]2) | %10
!mf!!<(! ([G,G]2 [Cc]4!<)! [B,B]2) |!mf! ([Ee]2 [Dd]2 [Cc]2 [B,B]2 | %12
!<(! [A,A]2 [B,B]2!<)!!>(! [Cc]2 [A,A]2)!>)! |!mp!!<(! ([F,F]2 [B,B]4!<)! [A,A]2) | %14
!mp!!<(! ([G,G]2 [Cc]4!<)! [B,B]2) |!mf! ([Ff][Ee] [Dd]2 [Cc]2 [B,B]2) | %16
!<(! ([Dd]2 [G,G][A,A]!<)! [B,B]2 [CAc]2 |!>(! [B,B]4)!>)!!mf! z4 |] %18
V:3
 x4!>(! x4!>)! | x4!>(! x4!>)! | x8 | x8 | x8 | x8 | C2 B,2 !arpeggio!C2 D2 | x8 | x4!>(! x4!>)! | %9
 x4!>(! x4!>)! | x4!>(! x4!>)! | x8 | x8 | x4!>(! x4!>)! | x4!>(! x4!>)! | x8 | x8 | x8 |] %18
V:4
"_Con pedale" B,,2 D,4 C,2- | C,2 E,4 D,2 | (B,4 [F,A,]2 F,2 | C,2 D,2 E,2 C,2) | %4
 B,,2 D,2 ^^C,2 ^E,2 | A,,2 A,4 G,2 | F,6 F,2 | C,8 | C,2 =E,4 D,2 | z2 D,4 C,2- | C,2 E,4 D,2 | %11
 (B,4 [F,A,]2 F,2 | C,2 D,2 E,2 C,2) | B,,2 G,2 D,2 C,2- | C,2 A,2 E,2 D,2 | [F,C]2 F,2 E,2 D,2 | %16
 G,2 B,,C, D,2 E,2 | D,4 z4 |] %18
V:5
 D,,2 F,,6 | E,,2 G,,6 | G,2 F,2 E,2 D,2 | F,,8 | (D,,2 F,,2 A,,,4) | %5
 (D,,2 F,,2 [A,,^E,-]2 [C,E,]2) | (F,,2 G,,2 A,,2 B,,2 | C,4 C,,4) | F,,8- | F,,8 | E,,2 G,,6 | %11
 G,2 F,2 E,2 D,2 | F,,8 | (D,,2 E,,2 F,,4 | (E,,2) F,,2 G,,4) | (A,,2 B,,2 ^^F,,2 G,,2) | %16
 (E,,4 F,,4 | [B,,,F,,]4) x4 |] %18
V:6
 x8 | x8 | x8 | x8 | x8 | x8 | x2 ^ED x4 | x8 | x8 | x8 | x8 | x8 | x8 | x8 | x8 | x8 | x8 | x8 |] %18

